X: 1
T: ANNIE HUGHES' -- JIG
C: Eddie Fox
B: Ryan's Mammoth Collection of Fiddle Tunes
R: jig
M: 2/4
L: 1/16
Z: Contributed 20020212143604 by John Chambers jmchambers:rcn.com
K: Bb
(ud>.c) \
| vBG zuA B2(uD>.E) | F>BA>c {c}B>AB>c | d>AB>d g>fe>d | c>=Bc>B c>ed>c |
| BG zA B2D>E | F>BA>c {c}B>AB>c | d>AB>d g>fe>d | c>BA>c B2 H[|]:|
|: (uB>.c) \
| d>fg>a b3f | (ag) {a}g>^f g2c>d | eG ze dF zd | cE zc B>AB>c |
| d>fg>a b3f | (ag) {a}g>^f g2g>a | g>=fa>g f>ed>c | (3Bde (3fga b2 "_D.C."[|]:|
